icons/svg/quick-reply.svg

<svg xmlns="http://www.w3.org/2000/svg" version="1.1" baseProfile="full" width="24" height="24" viewBox="0 0 24.00 24.00" xml:space="preserve"><path fill="#000" fill-opacity="1" stroke-width=".2" stroke-linejoin="round" d="M13 18l-7-7 7-7v4c8 0 11 11 11 11s-3-5-11-5v4zm-6 0l-7-7 7-7v3l-4 4 4 4v3z"/></svg>

﻿<?xml version="1.0" encoding="utf-8"?>
<!DOCTYPE svg PUBLIC "-//W3C//DTD SVG 1.1//EN" "http://www.w3.org/Graphics/SVG/1.1/DTD/svg11.dtd">
<svg xmlns="http://www.w3.org/2000/svg" xmlns:xlink="http://www.w3.org/1999/xlink" version="1.1" baseProfile="full" width="24" height="24" viewBox="0 0 24.00 24.00" enable-background="new 0 0 24.00 24.00" xml:space="preserve">
	<path fill="#000000" fill-opacity="1" stroke-width="0.2" stroke-linejoin="round" d="M 13,18L 6,11L 13,4L 13,8C 21,8 24,19 24,19C 24,19 21,14 13,14L 13,18 Z M 7,18L 0,11L 7,4L 7,7L 3,11L 7,15L 7,18 Z "/>
</svg>
